X:1
T:Lapi, lapi, cserelapi
C:Hungarian folk song
Z:Public Domain
L:1/8
M:4/4
K:C
V:1 treble nm="Voice"
%%MIDI program 52
V:1
 A3 G A3 G | cB A2 G4 | A2 B2 A2 E2 | GE D2 C4 :: CD E2 C4 | CD E2 E4 | A2 F2 E2 D2 | CC B,2 A,4 :| %8
w: La- pi, la- pi,|cse- re- la- pi,|gye- re Ka- ti|hoz- zánk lak- ni,|Ha nem jössz te|hoz- zánk lak- ni,|szá- rad- jál el,|mint a la- pi!-|

